img/general/logos/honda_logo_black.svg

<svg width="67" height="56" viewBox="0 0 67 56" fill="none" xmlns="http://www.w3.org/2000/svg">
<path d="M20.3623 0.130573C11.2087 0.832699 5.50961 3.94338 2.6054 9.82154C0.91264 13.2351 0.168811 17.1443 0.0177208 23.38C-0.0650029 26.7662 0.155138 34.571 0.403309 37.3097C1.06373 44.6605 4.51898 49.9323 10.672 52.9746C13.0395 54.1443 16.2056 55.0119 19.0961 55.3148C21.0097 55.5075 45.9792 55.5075 47.8928 55.3148C51.9258 54.9018 56.0278 53.4702 58.9874 51.4329C61.8779 49.4646 64.2728 46.2295 65.4843 42.7059C66.4065 39.9938 66.6403 38.1493 66.8885 31.3632C67.164 23.9304 66.9302 18.7543 66.1727 15.0789C64.2174 5.62315 58.0781 0.984474 46.4332 0.116901C44.1894 -0.047863 22.537 -0.0341911 20.3623 0.130573ZM42.2348 3.42037C44.7124 3.55779 47.0389 3.77793 47.1353 3.87433C47.1627 3.90168 46.3512 7.48067 45.3462 11.8308C43.2952 20.6406 42.8959 21.893 40.9967 25.7886C39.6205 28.5964 38.7529 29.9179 37.363 31.2948C35.876 32.7674 34.9818 33.2221 33.5639 33.2221C32.6689 33.2084 32.4215 33.153 31.692 32.7818C29.0756 31.4322 26.6807 27.7712 24.3268 21.5765C23.7621 20.0902 23.2672 18.1903 21.7802 11.8308C20.7752 7.48135 19.963 3.90236 19.991 3.87433C20.4313 3.43473 36.5364 3.10384 42.2348 3.42037ZM13.5208 5.85696C13.5618 6.14615 14.0028 11.8308 14.4985 18.4932C16.5768 46.7388 16.907 51.2401 16.907 51.3638C16.907 51.6941 13.4798 50.7998 12.0202 50.084C7.16135 47.7165 4.62905 42.6649 3.96795 34.1026C3.78882 31.7351 3.78882 25.7886 3.96795 22.0722C4.36721 13.8955 5.49594 10.5647 8.77207 7.93531C9.33609 7.48135 10.0526 6.94399 10.3691 6.75188C10.8648 6.43534 13.1222 5.37566 13.3561 5.3613C13.3971 5.34763 13.4798 5.58144 13.5208 5.85696ZM55.0501 5.76057C56.399 6.32459 57.0875 6.73821 58.4363 7.78422C61.4923 10.1518 62.7311 13.125 63.2952 19.4571C63.5426 22.1139 63.6254 31.3912 63.4462 33.8415C62.7721 42.6649 60.2802 47.6891 55.3803 50.084C53.9624 50.7725 50.4935 51.6947 50.4935 51.3782C50.4935 51.2818 51.9798 31.0884 53.2466 13.8135C53.756 6.94468 53.8934 5.34831 54.0034 5.34831C54.0178 5.34763 54.4854 5.54042 55.0501 5.76057ZM35.3387 40.1045C38.381 40.834 40.3076 43.1325 41.5881 47.6064C41.9873 48.9826 42.4276 51.4473 42.3039 51.5847C42.1801 51.6947 25.4829 51.6811 25.3729 51.571C25.2354 51.4473 25.6484 49.066 26.075 47.469C26.2678 46.7532 26.7634 45.4597 27.1764 44.6058C27.7958 43.3397 28.0986 42.885 28.8555 42.1282C30.7273 40.2556 32.9711 39.5535 35.3387 40.1045Z" fill="black"/>
</svg>

<svg width="67" height="56" fill="none" xmlns="http://www.w3.org/2000/svg"><path d="M20.362.13C11.21.834 5.51 3.944 2.605 9.823.913 13.235.17 17.144.018 23.38c-.083 3.386.137 11.191.385 13.93.66 7.35 4.116 12.622 10.269 15.665 2.367 1.17 5.534 2.037 8.424 2.34 1.914.193 26.883.193 28.797 0 4.033-.413 8.135-1.845 11.094-3.882 2.89-1.968 5.286-5.203 6.497-8.727.922-2.712 1.156-4.557 1.404-11.343.276-7.433.042-12.609-.715-16.284C64.217 5.623 58.078.984 46.433.117 44.19-.048 22.537-.034 20.363.13zm21.873 3.29c2.477.138 4.804.358 4.9.454.028.028-.784 3.607-1.789 7.957-2.05 8.81-2.45 10.062-4.35 13.958-1.376 2.807-2.243 4.129-3.633 5.506-1.487 1.472-2.381 1.927-3.8 1.927-.894-.014-1.142-.069-1.871-.44-2.616-1.35-5.011-5.01-7.365-11.205-.565-1.487-1.06-3.387-2.547-9.746-1.005-4.35-1.817-7.929-1.789-7.957.44-.44 16.545-.77 22.244-.454zM13.52 5.857c.04.29.482 5.974.977 12.636 2.079 28.246 2.409 32.747 2.409 32.87 0 .331-3.427-.563-4.887-1.279-4.859-2.367-7.39-7.42-8.052-15.981-.18-2.368-.18-8.314 0-12.03.4-8.178 1.528-11.508 4.804-14.138.564-.454 1.28-.991 1.597-1.183.496-.317 2.753-1.376 2.987-1.39.041-.014.124.22.165.495zm41.53-.096c1.348.564 2.036.977 3.385 2.023 3.056 2.368 4.295 5.341 4.86 11.673.247 2.657.33 11.934.15 14.385-.674 8.823-3.166 13.847-8.066 16.242-1.418.688-4.887 1.61-4.887 1.294 0-.096 1.487-20.29 2.754-37.565.509-6.868.646-8.465.756-8.465.015 0 .482.192 1.047.413zM35.338 40.104c3.042.73 4.969 3.029 6.25 7.502.398 1.377.839 3.841.715 3.979-.124.11-16.821.096-16.931-.014-.138-.124.275-2.505.702-4.102.193-.716.688-2.01 1.101-2.863.62-1.266.923-1.721 1.68-2.478 1.871-1.872 4.115-2.575 6.483-2.023z" fill="#000"/></svg>
